X:385
T:Bromsgrove
C:Martyn Roper
K:G
M:4/4
|: E2 EF G2 E2 | FEFG A2 F2 | E2 EF G2 d2 | B8 | 
c2 cB A2 c2 | BcBA G2 E2 | F2 FEDE FD | E8 :|| 
|: B2 Bc d2 B2 | cBcd e2 c2 | B2 Bc d2 B2 | A3 g fedc | 
B2 Bc d2 B2 | cBcd e2 c2 |1 d2 g2 fgaf | g4 g4 :|2 B2 G2 AGFA | G4 G4 || 

